dist/img/instagram.svg

<svg width="24" height="28" viewBox="0 0 24 28" fill="none" xmlns="http://www.w3.org/2000/svg">
<g clip-path="url('#clip0_1_134')">
<path d="M12.0055 7.71093C8.59833 7.71093 5.85011 10.5164 5.85011 13.9945C5.85011 17.4726 8.59833 20.2781 12.0055 20.2781C15.4126 20.2781 18.1608 17.4726 18.1608 13.9945C18.1608 10.5164 15.4126 7.71093 12.0055 7.71093ZM12.0055 18.0797C9.80368 18.0797 8.00368 16.2476 8.00368 13.9945C8.00368 11.7414 9.79833 9.90936 12.0055 9.90936C14.2126 9.90936 16.0073 11.7414 16.0073 13.9945C16.0073 16.2476 14.2073 18.0797 12.0055 18.0797ZM19.8483 7.45389C19.8483 8.26874 19.2055 8.91952 18.4126 8.91952C17.6144 8.91952 16.9769 8.26327 16.9769 7.45389C16.9769 6.64452 17.6198 5.98827 18.4126 5.98827C19.2055 5.98827 19.8483 6.64452 19.8483 7.45389ZM23.9251 8.94139C23.834 6.97811 23.3948 5.23905 21.9858 3.80624C20.5823 2.37343 18.8787 1.92499 16.9555 1.82655C14.9733 1.71171 9.03225 1.71171 7.05011 1.82655C5.13225 1.91952 3.42868 2.36796 2.01975 3.80077C0.610826 5.23358 0.176897 6.97264 0.0804687 8.93593C-0.0320312 10.9594 -0.0320312 17.0242 0.0804687 19.0476C0.17154 21.0109 0.610826 22.75 2.01975 24.1828C3.42868 25.6156 5.1269 26.064 7.05011 26.1625C9.03225 26.2773 14.9733 26.2773 16.9555 26.1625C18.8787 26.0695 20.5823 25.6211 21.9858 24.1828C23.3894 22.75 23.8287 21.0109 23.9251 19.0476C24.0376 17.0242 24.0376 10.9648 23.9251 8.94139ZM21.3644 21.2187C20.9465 22.2906 20.1376 23.1164 19.0823 23.5484C17.5019 24.1883 13.7519 24.0406 12.0055 24.0406C10.259 24.0406 6.50368 24.1828 4.92868 23.5484C3.87868 23.1219 3.06975 22.2961 2.64654 21.2187C2.01975 19.6055 2.1644 15.7773 2.1644 13.9945C2.1644 12.2117 2.02511 8.37811 2.64654 6.7703C3.0644 5.69843 3.87333 4.87264 4.92868 4.44061C6.50904 3.80077 10.259 3.94843 12.0055 3.94843C13.7519 3.94843 17.5073 3.80624 19.0823 4.44061C20.1323 4.86718 20.9412 5.69296 21.3644 6.7703C21.9912 8.38358 21.8465 12.2117 21.8465 13.9945C21.8465 15.7773 21.9912 19.6109 21.3644 21.2187Z" fill="#272727"></path>
</g>
<defs>
<clipPath id="clip0_1_134">
<rect width="24" height="28" fill="white"></rect>
</clipPath>
</defs>
</svg>

<svg width="24" height="28" fill="none" xmlns="http://www.w3.org/2000/svg"><g clip-path="url('#clip0_1_134')"><path d="M12.005 7.71c-3.407 0-6.155 2.806-6.155 6.285 0 3.478 2.748 6.283 6.155 6.283 3.408 0 6.156-2.805 6.156-6.283 0-3.479-2.748-6.284-6.156-6.284Zm0 10.37c-2.201 0-4.001-1.832-4.001-4.085 0-2.254 1.794-4.086 4.002-4.086 2.207 0 4.001 1.832 4.001 4.085 0 2.254-1.8 4.086-4.002 4.086Zm7.843-10.626c0 .815-.642 1.466-1.435 1.466-.799 0-1.436-.657-1.436-1.466 0-.81.643-1.466 1.436-1.466.793 0 1.435.657 1.435 1.466Zm4.077 1.487c-.091-1.963-.53-3.702-1.94-5.135-1.403-1.433-3.106-1.881-5.03-1.98-1.982-.114-7.923-.114-9.905 0-1.918.094-3.621.542-5.03 1.975C.61 5.234.177 6.973.08 8.936c-.112 2.023-.112 8.088 0 10.112.092 1.963.53 3.702 1.94 5.135 1.409 1.433 3.107 1.881 5.03 1.98 1.982.114 7.923.114 9.905 0 1.924-.093 3.627-.542 5.03-1.98 1.404-1.433 1.844-3.172 1.94-5.135.113-2.024.113-8.083 0-10.107Zm-2.56 12.278a4.095 4.095 0 0 1-2.283 2.33c-1.58.64-5.33.492-7.077.492-1.746 0-5.501.142-7.076-.493a4.094 4.094 0 0 1-2.282-2.33c-.627-1.613-.483-5.44-.483-7.223 0-1.783-.139-5.617.483-7.225a4.095 4.095 0 0 1 2.282-2.33c1.58-.64 5.33-.492 7.076-.492 1.747 0 5.502-.142 7.077.493a4.094 4.094 0 0 1 2.282 2.33c.627 1.613.482 5.44.482 7.224 0 1.782.145 5.616-.482 7.224Z" fill="#272727"/></g><defs><clipPath id="clip0_1_134"><path fill="#fff" d="M0 0h24v28H0z"/></clipPath></defs></svg>
